src/telerik-icons/solid/border-right.svg

<?xml version="1.0" encoding="utf-8"?>
<svg xmlns="http://www.w3.org/2000/svg" width="512" height="512" viewBox="0 0 512 512">
  <path d="M448 448h-32V32h32v416zM384 64V32h-32v32h32zm-96 0V32h32v32h-32zm-64 0V32h32v32h-32zm-64 0V32h32v32h-32zm-64 0V32h32v32H96zm192 384v-32h32v32h-32zm-64 0v-32h32v32h-32zm-64 0v-32h32v32h-32zm-64 0v-32h32v32H96zm128-320V96h32v32h-32zm0 64v-32h32v32h-32zm128 64v-32h32v32h-32zm-64 0v-32h32v32h-32zm-64 0v-32h32v32h-32zm-64 0v-32h32v32h-32zm-64 0v-32h32v32H96zm-64 0v-32h32v32H32zM64 64V32H32v32h32zm-32 64V96h32v32H32zm0 64v-32h32v32H32zm32 128v-32H32v32h32zm-32 64v-32h32v32H32zm0 64v-32h32v32H32zm224-128v-32h-32v32h32zm-32 64v-32h32v32h-32zm128 64v-32h32v32h-32z"/>
</svg>

<?xml version="1.0" encoding="utf-8"?>
<!-- Generator: Adobe Illustrator 19.2.1, SVG Export Plug-In . SVG Version: 6.00 Build 0)  -->
<svg xmlns="http://www.w3.org/2000/svg" width="512" height="512" viewBox="0 0 512 512">
<path d="M448,448h-32V32h32V448z M384,64V32h-32v32H384z M288,64V32h32v32H288z M224,64V32h32v32H224z M160,64V32h32v32H160z M96,64
	V32h32v32H96z M288,448v-32h32v32H288z M224,448v-32h32v32H224z M160,448v-32h32v32H160z M96,448v-32h32v32H96z M224,128V96h32v32
	H224z M224,192v-32h32v32H224z M352,256v-32h32v32H352z M288,256v-32h32v32H288z M224,256v-32h32v32H224z M160,256v-32h32v32H160z
	 M96,256v-32h32v32H96z M32,256v-32h32v32H32z M64,64V32H32v32H64z M32,128V96h32v32H32z M32,192v-32h32v32H32z M64,320v-32H32v32
	H64z M32,384v-32h32v32H32z M32,448v-32h32v32H32z M256,320v-32h-32v32H256z M224,384v-32h32v32H224z M352,448v-32h32v32H352z" />
</svg>
